X: 186
T: Wo de hua er
%%abc-version 2.0
%%abcx-abcm2ps-target-version 5.9.1 (29 Sep 2008)
%%abc-creator hum2abc beta
%%abcx-conversion-date 2013/10/02 07:44:28
%%abc-edited-by Helmut Schaffrath
%%humdrum-veritas 1528451370
%%humdrum-veritas-data 2896685138
%%continueall 1
%%barnumbers 0
L: 1/16
K: C
c2 c2 B3 G [I:setbarnb 1]| 
A4G F E G | 
D8- | 
D8 | 
d8- | 
d8 | 
c2 c d B2 G2A4 | 
G2 E D C2 D2 E D E G | 
[M:2/4]D8- | 
D8 | 
D2 G G G2 G2 | 
c2 c2 B A B d | 
A2 G F E F E D | 
C2 D2 E2 D E | 
G4F2 E2 | 
D8- | 
D8 | 
D2 G G G2 G2 | 
c2 c2 B A B d | 
A2 G F E F E D | 
C2 D2 E2 D E | 
G4F2 E2 | 
D8- | 
D8 |]  



